X:1
T:Inter natos mulierem
T:Ivo de Vento
T:Source : Liber mottetorum 4 vocum---Monachij---A.Berg---1571. Editor : André Vierendeels (26/01/14).
T:Inter natos mulierem
C:Ivo de Vento
%%score [ 1 [ 2 3 ] 4 ]
L:1/8
Q:1/4=90
M:4/4
K:F
V:1 treble nm="Superius" snm="S"
V:2 treble-8 nm="Tenor 1" snm="T 1"
V:3 treble-8 nm="Tenor 2" snm="T 2"
V:4 bass nm="Bassus" snm="B"
V:1
 z8 | z4 z2 F2 | F2 G2 A2 A2 | A2 B2 c4 | z4 z2 F2 | F2 G2 A3 G | F2 E2 FG AF | G2 F3 E/D/ E2 | %8
w: |In-|ter na- tos mu-|li- e- rem,|in-|ter na- tos _|_ mu- li- * * *|* e- * * *|
 F4 z2 F2 | F2 G2 A4 | z8 | z2 F2 F2 G2 | A2 A3 B c2 | d2 G2 A2 A2 | A2 F2 G2 F2- | FE/D/ E2 F4 | %16
w: rem, in-|ter na- tos,||in- ter na-|tos mu- * *|li- e- rum non|sur- re- xit ma-|* * * * ior,|
 z4 z2 F2 | F2 E2 F2 A2 | G2 G2 B3 c | d2 c4 B2 | c4 A4 | z4 z2 F2 | F2 E2 F4 | G4 A2 A2 | %24
w: non|sur- re- xit ma-|ior Io- han- *|* ne Bap-|ti- sta,|non|sur- re- xit|ma- ior Io-|
 A2 G2 E2 F2- | FE/D/ E2 F2 A2 | c4 c2 A2 | G4 G4 | G3 G A2 c2- |"^-natural" c2 B2 c4 | %30
w: han- ne Bap- ti-|* * * * sta, Io-|han- ne Ba-|pti- sta,|qu vi- am do-|* mi- no|
 G3 G A2 B2 | A2 F2 G4 | C2 c4 B2 | A2 A2 G2 G2 | F4 c4 | z2 F4 E2 | D2 B,2 C2 C2 | C4 C4 | %38
w: pre- pa- ra- vit|in he- re-|mo, pre- pa-|ra- vit in he-|re- mo,|pre- pa-|ra- vit in he-|re- mo,|
 z2 F4 E2 | F4 G2 B2- | B2 A2 G3 A | BA/G/ AB cA d2- | dc c3 B/A/ B2 | c4 z4 | z2 c4 B2 | %45
w: pre- pa-|ra- vit in|_ he- re- *|||mo,-|pre- pa-|
 G2 A2 B2 G2- | G2 F3 E/D/ E2 | F8- | F8- | F8 |] %50
w: ra- vit in he-|* re- * * *|mo.|_||
V:2
 c4 c2 d2 | e2 f2 d3 c | d2 e2 f4 | d4 c2 c2 | d2 e2 f3 e | d2 e2 f4 | z2 c4 c2 | d2 d4 cB | %8
w: In- ter na-|tos mu- li- *|* e- rem,|in- ter na-|tos mu- li- *|* e- rem,|in- ter|na- tos _ _|
 A2 A2 B2 c2 | B4 z2 c2 | c2 d2 e2 f2- | fe d2 c2 B2 | f4 z2 f2 | f2 e2 f3 e/d/ | c2 d2 c4 | %15
w: _ mu- li- e-|rem, in-|ter na- tos mu-|* * * li- e-|rem non|sur- re- xit _ _|_ ma- ior,|
 z2 c2 c2 A2 | B2 c2 F4 | z2 c4 f2- | f2 e2 d2 d2- | dG g2 f2 d2 | e4 f2 c2 | G3 A BA AG/F/ | %22
w: non sur- re-|xit ma- ior,|non sur-|* re- xit ma-|* * * ior Io-|han- ne Ba-|pti- * * * * * *|
 G4 A2 c2 | d2 e2 f2 f2- | fe/d/ e2 c2 c2 | d2 c2 A3 B | c2 f3 e dc | d4 e4 | e3 e f4 | %29
w: * sta, non|sur- re- xit ma-|* * * * ior Io-|han- ne Ba- *|* pti- * * *|* sta,|qui vi- am|
 g2 g2 e2 e2- | e2 d2 f2 g2 | c4 d4 | f2 c2 d2 cB | c8 | z2 f4 e2 | d2 d2 c3 B | A2 F2 G4 | %37
w: do- mi- no pre-|* pa- ra- vit|in _|he- re- mo, _ _|_|pre- pa-|ra- vit in _|_ he- re-|
 A4 z2 c2 | B2 A4 G2 | c2 d2 B2 G2 | c6 c2 | f2 f2 e2 d2 | fe ed/c/ d4 | f2 c2 c2 f2- | %44
w: mo, pre-|pa- ra- vit|in he- re- mo,|pre- pa-|ra- vit in he-|re- * * * * *|mo, pre- pa- ra-|
 f2 e2 d3 c | de f4 ed | c2 d2 c4 | c2 c4 c2 | d8 | c8 |] %50
w: * vit, pre- pa-|ra- * vit,, _ _|pre- pa- ra-|vit in he-|re-|mo.|
V:3
 z8 | z8 | z4 z2 F2 | F2 G2 A3 G | A2 B2 c2 d2 | B4 z2 F2 | F2 G2 A2 F2 | B3 A G2 G2 | %8
w: ||In-|ter na- tos _|_ mu- li- e-|rem, in-|ter na- tos mu-|li- * * e-|
 F2 F2 D2 C2 | D2 E2 F3 G | A3 G/A/ B2 c2 | d4 z4 | z2 c2 c2 A2 | B2 c2 F2 c2 | A4 G2 A2 | %15
w: rem, in- ter na-|tos mu- li- *|* * * * e-|rem,|non sor- re-|xit ma- ior Io-|han- ne Ba-|
 G4 A2 c2 | F2 A2 B2 A2- | AG/F/ G2 A2 F2 | c4 G4 | B2 c2 d4 | z2 c2 c2 A2 | B2 c2 F4 | %22
w: pti- sta, non|sur- re- xit ma-|* * * * ior Io-|han- ne|Ba- pti- sta,|non sur- re-|xit ma- ior,|
 z2 c2 c2 A2 | B2 c2 F2 F2 | c2 c2 G2 A2 | G2 G2 c4 | A2 d4 c2- | %27
w: non sur- re-|xit ma- ior Io-|han- ne Ba- pti-|sta, Io- han-|ne Ba- pti-|
"^-natural""^-natural" cB/A/ B2 c4 | z2 c3 c c2 | d2 d2 c4 | z8 | z2 c4 B2 | A2 A2 G2 G2 | %33
w: * * * * sta,|qu vi- am|do- mi- no||pre- pa-|ra- vit in he-|
 F4 C2 c2- | c2 B2 A2 G2 | B4 A2 G2- | GF F3 E/D/ E2 | F2 A4 G2 | F4 c2 c2 | C2 F3 E/D/ E2 | %40
w: re- mo, pre-|* pa- ra- vit|in he- re-||mo, pre- pa-|ra- vit in|he- re- * * *|
 F2 f4 e2 | d2 d2 c2 B2 | A4 G4 | A4 G2 F2 | G4 G3 A | B2 c2 d2 cB | AG/A/ B2 G4 | A6 A2 | B8 | %49
w: mo, pre- pa-|ra- vit in he-|re- mo,|pre- pa- ra-|vit in _|_ he- re- * *|* * * * mo,|in he-|re-|
 A8 |] %50
w: mo.|
V:4
 z8 | z8 | z8 | z4 F,4 | F,2 G,2 A,2 B,2- | B,A, G,2 F,3 E, | D,2 C,2 F,4 | z2 B,,2 B,,2 C,2 | %8
w: |||In-|ter na- tos mu-|* * * li- *|* e- rem,|in- ter na-|
 D,3 C, B,,2 A,,2 | B,,2 G,,2 F,,4 | F,4 G,2 A,2 | B,2 B,2 A,2 G,2 | F,8 | z4 z2 F,2 | %14
w: tos _ _ mu-|li- e- rem,|in- ter na-|tos mu- li- e-|rem,|non|
 F,2 D,2 E,2 F,2 | C,2 C,2 F,4 | D,2 C,2 D,4 | C,4 z4 | z4 z2 G,2 | G,2 E,2 F,2 G,2 | C,2 C,2 F,4 | %21
w: sur- re- xit ma-|ior Io- han-|ne Ba- pti-|sta,|non|sur- re- xit ma-|ior Io- han-|
 _E,2 E,2 D,4 | C,4 F,4 | z8 | z2 C,2 C,2 A,,2 | B,,2 C,2 F,,2 F,2 | F,2 D,2 F,2 A,2 | %27
w: ne Ba- pti-|* sta,||non sur- re-|xit ma- ior Io-|han- ne Ba- pti-|
 G,4 z2 C,2- | C,C, C,2 F,2 A,2 | G,4 z2 C2- | C2 B,2 A,2 G,2 | F,2 A,2 G,4 | F,4 z4 | z2 F,4 E,2 | %34
w: sta, qui|_ vi- am do- mi-|no pre-|* pa- ra- vit|in he- re-|mo,|pre- pa-|
 D,4 C,4 | D,2 B,,2 C,4 | D,4 C,4 | z2 F,4 E,2 |"^-natural""^-natural" D,2 D,2 C,3 B,, | %39
w: ra- vit|in he- re-|* mo,|pre- pa-|ra- vit in- *|
 A,,2 B,,2 G,,4 | F,,4 C,4 | z8 | z8 | F,4 E,2 D,2 | C,4 z2 G,2- | G,2 F,2 D,2 E,2 | F,2 B,,2 C,4 | %47
w: * he- re-|* mo,|||pre- pa- ra-|vit, pre-|* pa- ra- vit|in he- re-|
 F,,2 F,4 F,2 | B,,8 | F,8 |] %50
w: mo, in he-|re-|mo.|

